; generated by SuperSlicer 2.5.60.0 on 2024-10-31 at 03:29:37 UTC


;
;

;
;
; 

; external perimeters extrusion width = 0.45mm
; perimeters extrusion width = 0.45mm
; infill extrusion width = 0.45mm
; solid infill extrusion width = 0.45mm
; top infill extrusion width = 0.45mm
; support material extrusion width = 0.38mm
; first layer extrusion width = 0.45mm

; external perimeters extrusion width = 0.45mm
; perimeters extrusion width = 0.45mm
; infill extrusion width = 0.45mm
; solid infill extrusion width = 0.45mm
; top infill extrusion width = 0.45mm
; support material extrusion width = 0.38mm
; first layer extrusion width = 0.45mm


M73 P0 R144
M107
;TYPE:Custom
; custom gcode: start_gcode
; ESTIMATOR_ADD_TIME 300 Print start
START_PRINT EXTRUDER_TEMP=265,265 EXTRUDER_OTHER_LAYER_TEMP=260,260 BED_TEMP=120 INITIAL_TOOL=0 TOTAL_LAYER_COUNT=112 X0=87.8901 Y0=109.761 X1=222.832 Y1=212.918 TOTAL_TOOLSHIFTS=107 FIRST_X=112.777 FIRST_Y=129.617 MIN_X=77.358 MAX_X=222.606 USED_TOOLS=0,1 WIPE_ACCEL=0
; custom gcode end: start_gcode

; custom gcode: toolchange_gcode
; Removed by Ratical post processor: T0
; custom gcode end: toolchange_gcode
; custom gcode: start_filament_gcode
; Filament gcode
SET_PRESSURE_ADVANCE ADVANCE=0.044
; custom gcode end: start_filament_gcode
G1 Z0.2 F3000
;LAYER_CHANGE
;Z:0.2
;HEIGHT:0.2
M73 P0 R143
G1 Z0.2
; custom gcode: layer_gcode
;AFTER_LAYER_CHANGE
;0.2
G92 E0
_ON_LAYER_CHANGE LAYER=1
; custom gcode end: layer_gcode

M104 S265 T0 ; set temperature
G1 E-0.8 F7200
G1 Z0.6 F3000
M204 S2000
G1 X112.777 Y129.617 F30000
G1 Z0.2 F3000
G1 E0.8 F7200
; custom gcode: feature_gcode
;BETWEEN_EXTRUSION_ROLE
G92 E0
; custom gcode end: feature_gcode

;TYPE:External perimeter
;WIDTH:0.45
;HEIGHT:0.2
G1 F2400
G1 X112.697 Y129.743 E0.00446
G1 X112.648 Y129.822 E0.00281
G1 X112.548 Y129.998 E0.00605
G1 X112.509 Y130.069 E0.00241
G1 X112.41 Y130.272 E0.00678
G1 X112.379 Y130.341 E0.00227
G1 X112.293 Y130.559 E0.00703
G1 X112.256 Y130.659 E0.00317
G1 X112.194 Y130.867 E0.00651
G1 X112.147 Y131.04 E0.00536
G1 X112.123 Y131.148 E0.00332
G1 X112.078 Y131.377 E0.007
G1 X112.072 Y131.416 E0.00117
G1 X112.06 Y131.508 E0.00278
G1 X112.037 Y131.669 E0.00487
G1 X112.028 Y131.747 E0.00237
G1 X112.009 Y131.933 E0.00559
G1 X111.989 Y132.168 E0.00706
G1 X111.976 Y132.385 E0.00653
G1 X111.969 Y132.547 E0.00485
G1 X111.965 Y132.637 E0.00268

; snip - removed for smaller test fixture

G1 X99.148 Y143.458 E0.04555
G1 X99.768 Y143.145 F30000
; custom gcode: feature_gcode
;BETWEEN_EXTRUSION_ROLE
G92 E0
; custom gcode end: feature_gcode

;TYPE:Gap fill
;WIDTH:0.119546
G1 F21000
G1 X99.808 Y143.118 E0.00028
;WIDTH:0.158992
G1 X99.964 Y143.012 E0.00167
;WIDTH:0.191133
G1 X100.073 Y142.913 E0.00164
;WIDTH:0.209195
G1 X100.183 Y142.815 E0.00185
;WIDTH:0.227256
G1 X100.293 Y142.716 E0.00204
;WIDTH:0.245318
G1 X100.402 Y142.618 E0.00223
;WIDTH:0.263379
G1 X100.512 Y142.519 E0.00243
;WIDTH:0.199041
G1 X100.626 Y142.355 E0.00235
M106 S99.45
;LAYER_CHANGE
;Z:22.2
;HEIGHT:0.200001
G1 Z22.2 F3000
; custom gcode: layer_gcode
;AFTER_LAYER_CHANGE
;22.2
G92 E0
_ON_LAYER_CHANGE LAYER=111
; custom gcode end: layer_gcode

G1 E-0.8 F7200
G1 Z22.6 F3000
; acceleration to travel
G1 X95.319 Y150.014 F30000
; decel to extrusion
M204 S10000
G1 X94.229 Y151.586
; end travel
G1 Z22.2 F3000
G1 E0.8 F7200
; custom gcode: feature_gcode
;BETWEEN_EXTRUSION_ROLE
G92 E0
; custom gcode end: feature_gcode

;TYPE:External perimeter
;WIDTH:0.45
;HEIGHT:0.2
G1 F2400
G1 X94.125 Y151.875 E0.00919
G1 X94.064 Y151.893 E0.00192
G1 X93.769 Y151.979 E0.00921
G1 X93.508 Y151.987 E0.0078
G1 X93.415 Y151.967 E0.00286
G1 X93.221 Y151.889 E0.00628
G1 X93.038 Y151.792 E0.00618
G1 X92.925 Y151.735 E0.00381
G1 X92.763 Y151.601 E0.00629
G1 X92.666 Y151.519 E0.0038
G1 X92.547 Y151.415 E0.00474
G1 X92.461 Y151.31 E0.00406
G1 X92.435 Y151.244 E0.00211
G1 X92.418 Y151.207 E0.00123
G1 X92.401 Y151.06 E0.00443
G1 X92.391 Y150.962 E0.00297
G1 X92.533 Y150.917 E0.00444
G1 X93.009 Y150.674 E0.01603
G1 X93.079 Y150.666 E0.00211
G1 X93.598 Y150.7 E0.01557
G1 X93.88 Y150.909 E0.01051
G1 X94.076 Y151.058 E0.00738
G1 X94.212 Y151.529 E0.01468
G1 E-0.8 F7200
M204 S25000
G1 X93.425 Y150.809 F30000
G1 E0.8 F7200
; custom gcode: feature_gcode
;BETWEEN_EXTRUSION_ROLE
G92 E0
; custom gcode end: feature_gcode

;TYPE:Top solid infill
;WIDTH:0.32
G1 F21000
G1 X93.839 Y151.223 E0.01231
G1 X93.96 Y151.639 E0.0091
G1 X93.798 Y151.686 E0.00355
G1 X93.064 Y150.953 E0.0218
G1 X92.73 Y151.123 E0.0079
G1 X93.465 Y151.859 E0.02186
G1 E-0.8 F7200
G1 Z22.6 F3000
G1 X98.312 Y141.08 F30000
G1 Z22.2 F3000
G1 E0.8 F7200
; custom gcode: feature_gcode
;BETWEEN_EXTRUSION_ROLE
G92 E0
; custom gcode end: feature_gcode

;TYPE:Internal perimeter
;WIDTH:0.45
G1 F2400
G1 X98.541 Y141.029 E0.007
G1 X98.576 Y141.02 E0.00109
G1 X98.659 Y141.003 E0.00254
G1 X98.96 Y141.02 E0.00902
G1 X99.12 Y141.04 E0.00484
G1 X99.461 Y141.177 E0.01101
G1 X99.754 Y141.348 E0.01017
G1 X99.868 Y141.453 E0.00464
G1 X99.921 Y141.507 E0.00227
G1 X100.009 Y141.623 E0.00437
G1 X100.172 Y141.918 E0.01007
G1 X100.211 Y141.961 E0.00173
G1 X100.251 Y142.093 E0.00414
G1 X100.275 Y142.171 E0.00245
G1 X100.294 Y142.386 E0.00647
G1 X99.775 Y142.632 E0.0172
G1 X99.319 Y142.728 E0.01396
G1 X99.214 Y142.725 E0.00316
G1 X99.163 Y142.717 E0.00153
G1 X99.092 Y142.684 E0.00235
G1 X99.041 Y142.652 E0.00182
G1 X98.987 Y142.597 E0.0023
G1 X98.782 Y142.344 E0.00976
G1 X98.644 Y142.107 E0.00818
G1 X98.521 Y141.88 E0.00776
G1 X98.46 Y141.669 E0.00657
G1 X98.327 Y141.138 E0.0164
G1 X97.893 Y140.958 F30000
G1 F5584.113
G1 X97.996 Y140.855 E0.00435
G1 X98.091 Y140.763 E0.00396
G1 X98.137 Y140.718 E0.00194
G1 X98.207 Y140.699 E0.00217
G1 X98.31 Y140.667 E0.00323
G1 X98.379 Y140.648 E0.00214
G1 X98.485 Y140.623 E0.00325
G1 X98.575 Y140.604 E0.00278
G1 X98.649 Y140.595 E0.00222
G1 X98.996 Y140.615 E0.01042
G1 X99.173 Y140.637 E0.00535
G1 X99.233 Y140.647 E0.00181
G1 X99.641 Y140.81 E0.01317
G1 X99.679 Y140.833 E0.00132
G1 X99.999 Y141.019 E0.01108
G1 X100.151 Y141.161 E0.00623
G1 X100.229 Y141.24 E0.00332
G1 X100.351 Y141.401 E0.00606
G1 X100.505 Y141.679 E0.00952
G1 X100.573 Y141.754 E0.00305
G1 X100.641 Y141.974 E0.00689
G1 X100.676 Y142.093 E0.00371
G1 X100.705 Y142.408 E0.00948
G1 X100.658 Y142.574 E0.00518
G1 X100.476 Y142.75 E0.00757
G1 X99.906 Y143.02 E0.0189
G1 X99.356 Y143.136 E0.01683
G1 X99.175 Y143.131 E0.00543
G1 X99.068 Y143.113 E0.00326
G1 X99.01 Y143.094 E0.00182
G1 X98.9 Y143.043 E0.00366
G1 X98.784 Y142.972 E0.00405
G1 X98.682 Y142.867 E0.00438
G1 X98.446 Y142.575 E0.01125
G1 X98.29 Y142.307 E0.0093
G1 X98.142 Y142.036 E0.00926
G1 X98.067 Y141.775 E0.00813
G1 X97.929 Y141.224 E0.01701
G1 X97.901 Y141.017 E0.00626
M204 S10000
G1 X97.468 Y140.847 F30000
; custom gcode: feature_gcode
;BETWEEN_EXTRUSION_ROLE
G92 E0
; custom gcode end: feature_gcode

;TYPE:External perimeter
G1 F9032.1761
G1 X97.524 Y140.751 E0.00334
G1 X97.711 Y140.565 E0.00789
G1 X97.806 Y140.471 E0.00402
G1 X97.936 Y140.352 E0.00527
G1 X98.092 Y140.308 E0.00485
G1 X98.198 Y140.275 E0.00332
G1 X98.282 Y140.252 E0.00262
G1 X98.394 Y140.226 E0.00344
G1 X98.499 Y140.204 E0.00323
G1 X98.628 Y140.186 E0.00389
G1 X99.033 Y140.209 E0.01216
G1 X99.234 Y140.234 E0.00606
G1 X99.299 Y140.246 E0.00199
G1 X99.35 Y140.256 E0.00155
G1 X99.821 Y140.444 E0.0152
G1 X99.885 Y140.481 E0.00223
G1 X100.243 Y140.691 E0.01241
G1 X100.434 Y140.868 E0.00782
G1 X100.537 Y140.972 E0.00437
G1 X100.693 Y141.178 E0.00776
G1 X100.838 Y141.44 E0.00896
G1 X100.936 Y141.548 E0.00436
G1 X101.03 Y141.856 E0.00965
G1 X101.078 Y142.015 E0.00498
G1 X101.112 Y142.395 E0.01142
G1 X101.116 Y142.45 E0.00167
G1 X101.021 Y142.79 E0.01058
G1 X100.711 Y143.089 E0.01289
G1 X100.037 Y143.409 E0.02234
G1 X99.394 Y143.544 E0.0197
G1 X99.137 Y143.537 E0.00769
G1 X98.97 Y143.51 E0.00507
G1 X98.86 Y143.473 E0.00347
G1 X98.707 Y143.402 E0.00506
G1 X98.528 Y143.293 E0.00628
G1 X98.378 Y143.138 E0.00646
G1 X98.11 Y142.807 E0.01275
G1 X97.935 Y142.507 E0.01041
G1 X97.763 Y142.191 E0.01077
G1 X97.673 Y141.881 E0.00968
G1 X97.528 Y141.301 E0.01791
G1 X97.476 Y140.907 E0.0119
G1 E-0.8 F7200
M204 S25000
G1 X98.559 Y141.556 F30000
G1 E0.8 F7200
; custom gcode: feature_gcode
;BETWEEN_EXTRUSION_ROLE
G92 E0
; custom gcode end: feature_gcode

;TYPE:Solid infill
;WIDTH:0.32
G1 F21000
G1 X99.401 Y142.398 E0.02504
G1 X99.691 Y142.369 E0.00613
G1 X99.817 Y142.31 E0.00293
G1 X98.804 Y141.296 E0.03012
G1 X98.928 Y141.293 E0.00262
G1 X99.577 Y141.565 E0.01479
G1 X100.084 Y142.071 E0.01505
M106 S102
M106 S102
;LAYER_CHANGE
;Z:22.4
;HEIGHT:0.199999
G1 Z22.4 F3000
; custom gcode: layer_gcode
;AFTER_LAYER_CHANGE
;22.4
G92 E0
_ON_LAYER_CHANGE LAYER=112
; custom gcode end: layer_gcode

G1 E-0.8 F7200
G1 Z22.8 F3000
; acceleration to travel
G1 X98.559 Y141.34 F30000
; decel to extrusion
M204 S10000
G1 X98.246 Y141.189
; end travel
G1 Z22.4 F3000
G1 E0.8 F7200
; custom gcode: feature_gcode
;BETWEEN_EXTRUSION_ROLE
G92 E0
; custom gcode end: feature_gcode

;TYPE:External perimeter
;WIDTH:0.45
G1 F2418.2422
G1 X98.27 Y141.15 E0.00137
G1 X98.358 Y140.995 E0.00534
G1 X98.384 Y140.95 E0.00156
G1 X98.449 Y140.906 E0.00235
G1 X98.777 Y140.825 E0.01011
G1 X99.126 Y140.809 E0.01046
G1 X99.603 Y140.972 E0.0151
G1 X99.695 Y141.004 E0.00291
G1 X99.757 Y141.085 E0.00307
G1 X99.954 Y141.244 E0.00759
G1 X100.18 Y141.499 E0.0102
G1 X100.202 Y141.524 E0.00101
G1 X100.261 Y141.603 E0.00296
G1 X100.307 Y141.726 E0.00391
G1 X100.347 Y142.018 E0.00883
G1 X100.315 Y142.241 E0.00675
G1 X100.296 Y142.317 E0.00236
G1 X100.131 Y142.413 E0.00571
G1 X99.993 Y142.468 E0.00444
G1 X99.706 Y142.494 E0.00864
G1 X99.538 Y142.507 E0.00506
G1 X99.287 Y142.551 E0.00764
G1 X99.087 Y142.453 E0.00667
G1 X99.022 Y142.419 E0.00219
G1 X98.629 Y141.946 E0.01841
G1 X98.381 Y141.499 E0.01531
G1 X98.277 Y141.304 E0.00663
G1 X98.262 Y141.247 E0.00176
G1 E-0.8 F7200
M204 S25000
G1 X99.311 Y142.426 F30000
G1 E0.8 F7200
; custom gcode: feature_gcode
;BETWEEN_EXTRUSION_ROLE
G92 E0
; custom gcode end: feature_gcode

;TYPE:Top solid infill
;WIDTH:0.32
G1 F21000
G1 X100.008 Y141.728 E0.02073
G1 X99.754 Y141.477 E0.0075
G1 X99.121 Y142.11 E0.01883
G1 X98.892 Y141.835 E0.00753
G1 X99.501 Y141.226 E0.01809
G1 X99.124 Y141.098 E0.00836
G1 X98.706 Y141.516 E0.01244
G1 X98.528 Y141.189 E0.00782
G1 X98.766 Y140.951 E0.00707
G1 E-0.8 F7200
G1 Z22.8 F3000
G1 X177.579 Y212.508 F30000
G1 Z22.4 F3000
G1 E0.8 F7200
; custom gcode: tcr_rotated_gcode
;HEIGHT:0.2
;TYPE:Wipe tower
;WIDTH:0.5
;--------------------
; CP TOOLCHANGE START
; toolchange #108
M220 S100
; CP TOOLCHANGE UNLOAD
;WIDTH:0.5
G1  X177.079 Y212.258  
;WIDTH:0.5
G1 F2000
G1  Y211.758  F2400
G4 S0
M220 S100
G1 F30000
G4 S0
G92 E0
; CP TOOLCHANGE END
;------------------



; custom gcode end: tcr_rotated_gcode
G1 E-0.8 F7200
G1 Z22.8 F3000
M107
;TYPE:Custom
; custom gcode: end_filament_gcode
; Filament-specific end gcode
; custom gcode end: end_filament_gcode
; custom gcode: end_filament_gcode
; Filament-specific end gcode
; custom gcode end: end_filament_gcode
; custom gcode: end_gcode
END_PRINT
; custom gcode end: end_gcode
M73 P100 R0
; filament used [mm] = 6472.55, 7008.82
; filament used [cm3] = 15.57, 16.86
; filament used [g] = 16.66, 18.04
; filament cost = 0.71, 0.77
; total filament used [g] = 34.70
; total filament cost = 1.48
; total toolchanges = 107
; total layers count = 112
; estimated printing time (normal mode) = 2h 24m 0s

; SuperSlicer_config = begin
; allow_empty_layers = 0
; arc_fitting = 0
; arc_fitting_tolerance = 5%
; avoid_crossing_not_first_layer = 1
; avoid_crossing_perimeters = 0
; avoid_crossing_perimeters_max_detour = 0
; avoid_crossing_top = 1
; bed_custom_model = D:/3D Druck/Slicer/Slicer Bed/ratical-vcore-bed-300x300.stl
; bed_custom_texture = D:/3D Druck/Slicer/Slicer Bed/Bed-Texture-300x300 - no logo.svg
; bed_shape = 0x0,300x0,300x300,0x300
; bed_temperature = 120,120
; before_layer_gcode = 
; between_objects_gcode = ;BETWEEN_OBJECTS\nG92 E0
; bottom_fill_pattern = monotonicgapfill
; bottom_solid_layers = 3
; bottom_solid_min_thickness = 0
; bridge_acceleration = 5000
; bridge_angle = 0
; bridge_fan_speed = 40,40
; bridge_fill_pattern = rectilinear
; bridge_flow_ratio = 100%
; bridge_overlap = 100%
; bridge_overlap_min = 100%
; bridge_precision = 25%
; bridge_speed = 350
; bridge_type = nozzle
; bridged_infill_margin = 200%
; brim_acceleration = 15000
; brim_ears = 0
; brim_ears_detection_length = 1
; brim_ears_max_angle = 125
; brim_ears_pattern = concentric
; brim_inside_holes = 0
; brim_per_object = 0
; brim_separation = 0
; brim_speed = 50%
; brim_width = 0
; brim_width_interior = 0
; chamber_temperature = 0,0
; clip_multipart_objects = 1
; color_change_gcode = M600
; complete_objects = 0
; complete_objects_one_skirt = 1
; complete_objects_sort = object
; cooling_tube_length = 0
; cooling_tube_retraction = 0
; curve_smoothing_angle_concave = 0
; curve_smoothing_angle_convex = 0
; curve_smoothing_cutoff_dist = 2
; curve_smoothing_precision = 0
; default_acceleration = 25000
; default_fan_speed = 35,35
; default_filament_profile = "Creality PLA"
; default_print_profile = 0.20mm NORMAL
; default_speed = 100
; deretract_speed = 0,0
; disable_fan_first_layers = 1,1
; dont_support_bridges = 1
; draft_shield = disabled
; duplicate_distance = 6
; end_filament_gcode = "; Filament-specific end gcode";"; Filament-specific end gcode"
; end_gcode = END_PRINT
; enforce_full_fill_volume = 1
; enforce_retract_first_layer = 1
; ensure_vertical_shell_thickness = 1
; external_infill_margin = 150%
; external_perimeter_acceleration = 10000
; external_perimeter_cut_corners = 0%
; external_perimeter_extrusion_change_odd_layers = 0
; external_perimeter_extrusion_spacing = 
; external_perimeter_extrusion_width = 0.45
; external_perimeter_fan_speed = -1,-1
; external_perimeter_overlap = 100%
; external_perimeter_speed = 350
; external_perimeters_first = 0
; external_perimeters_hole = 1
; external_perimeters_nothole = 1
; external_perimeters_vase = 0
; extra_loading_move = -0
; extra_perimeters = 0
; extra_perimeters_odd_layers = 0
; extra_perimeters_overhangs = 0
; extruder_clearance_height = 25
; extruder_clearance_radius = 45
; extruder_colour = #FF0000;#000000
; extruder_extrusion_multiplier_speed = 0:0:1,0:0:1
; extruder_fan_offset = 0%,0%
; extruder_offset = 0x0,0x0
; extruder_temperature_offset = 0,0
; extrusion_axis = E
; extrusion_multiplier = 0.885,0.885
; extrusion_spacing = 
; extrusion_width = 0.45
; fan_below_layer_time = 5,5
; fan_kickstart = 0
; fan_percentage = 0
; fan_printer_min_speed = 0
; fan_speedup_overhangs = 0
; fan_speedup_time = 0.5
; feature_gcode = ;BETWEEN_EXTRUSION_ROLE\nG92 E0
; filament_colour = #FFFFFF;#FFFFFF
; filament_cooling_final_speed = 2,2
; filament_cooling_initial_speed = 3,3
; filament_cooling_moves = 0,0
; filament_cooling_zone_pause = 0,0
; filament_cost = 42.69,42.69
; filament_custom_variables = ;
; filament_density = 1.07,1.07
; filament_diameter = 1.75,1.75
; filament_dip_extraction_speed = 70,70
; filament_dip_insertion_speed = 33,33
; filament_enable_toolchange_part_fan = 0,0
; filament_enable_toolchange_temp = 0,0
; filament_load_time = 0,0
; filament_loading_speed = 14,14
; filament_loading_speed_start = 19,19
; filament_max_overlap = 100%,100%
; filament_max_speed = 0,0
; filament_max_volumetric_speed = 0,0
; filament_max_wipe_tower_speed = 100,100
; filament_melt_zone_pause = 0,0
; filament_minimal_purge_on_wipe_tower = 150,150
; filament_notes = ;
; filament_ramming_parameters = "120 110| 0.05 5.30967 0.45 5.50967 0.95 6.1871 1.45 7.39677 1.95 9.05484 2.45 10 2.95 10.3098 3.45 13.0839 3.95 7.6 4.45 7.6 4.95 7.6";"120 110| 0.05 5.30967 0.45 5.50967 0.95 6.1871 1.45 7.39677 1.95 9.05484 2.45 10 2.95 10.3098 3.45 13.0839 3.95 7.6 4.45 7.6 4.95 7.6"
; filament_retract_length = 0.8,0.8
; filament_retract_lift = 0.4,0.4
; filament_settings_id = "Prusament ASA @V-Core";"Prusament ASA @V-Core"
; filament_shrink = 99.5%,99.5%
; filament_skinnydip_distance = 31,31
; filament_soluble = 0,0
